X: 3649
T: Bill Sullivan's
R: polka
M: 2/4
K: Amajor
|:a2 a>f|ec a>f|ec a>f|ec BA|
a2 a>f|ec a>f|ec B>c|1 BA A2:|2 BA A>B||
|:ce ec|df fe|ce cA/B/|cB BA/B/|
ce ec|df fe|ce B>c|1 BA A>B:|2 BA A2||

